docs/envoy/v1.11.0/_images/incremental.svg

<?xml version="1.0" encoding="utf-8" standalone="no"?><!DOCTYPE svg PUBLIC "-//W3C//DTD SVG 20010904//EN" "http://www.w3.org/TR/2001/REC-SVG-20010904/DTD/svg10.dtd"><svg xmlns="http://www.w3.org/2000/svg" width="1083" height="536" xmlns:xlink="http://www.w3.org/1999/xlink"><desc style="-webkit-tap-highlight-color: rgba(0, 0, 0, 0);">Created with Raphaël 2.2.0</desc><defs style="-webkit-tap-highlight-color: rgba(0, 0, 0, 0);"><path stroke-linecap="round" d="M5,0 0,2.5 5,5z" id="raphael-marker-block" style="-webkit-tap-highlight-color: rgba(0, 0, 0, 0);"></path><marker id="raphael-marker-endblock55-obj5a8cp" markerHeight="5" markerWidth="5" orient="auto" refX="2.5" refY="2.5" style="-webkit-tap-highlight-color: rgba(0, 0, 0, 0);"><use xlink:href="#raphael-marker-block" transform="rotate(180 2.5 2.5) scale(1,1)" stroke-width="1.0000" fill="#000" stroke="none" style="-webkit-tap-highlight-color: rgba(0, 0, 0, 0);"></use></marker><marker id="raphael-marker-endblock55-objv2ikk" markerHeight="5" markerWidth="5" orient="auto" refX="2.5" refY="2.5" style="-webkit-tap-highlight-color: rgba(0, 0, 0, 0);"><use xlink:href="#raphael-marker-block" transform="rotate(180 2.5 2.5) scale(1,1)" stroke-width="1.0000" fill="#000" stroke="none" style="-webkit-tap-highlight-color: rgba(0, 0, 0, 0);"></use></marker><marker id="raphael-marker-endblock55-objuc7hd" markerHeight="5" markerWidth="5" orient="auto" refX="2.5" refY="2.5" style="-webkit-tap-highlight-color: rgba(0, 0, 0, 0);"><use xlink:href="#raphael-marker-block" transform="rotate(180 2.5 2.5) scale(1,1)" stroke-width="1.0000" fill="#000" stroke="none" style="-webkit-tap-highlight-color: rgba(0, 0, 0, 0);"></use></marker><marker id="raphael-marker-endblock55-objcpypu" markerHeight="5" markerWidth="5" orient="auto" refX="2.5" refY="2.5" style="-webkit-tap-highlight-color: rgba(0, 0, 0, 0);"><use xlink:href="#raphael-marker-block" transform="rotate(180 2.5 2.5) scale(1,1)" stroke-width="1.0000" fill="#000" stroke="none" style="-webkit-tap-highlight-color: rgba(0, 0, 0, 0);"></use></marker><marker id="raphael-marker-endblock55-objayc22" markerHeight="5" markerWidth="5" orient="auto" refX="2.5" refY="2.5" style="-webkit-tap-highlight-color: rgba(0, 0, 0, 0);"><use xlink:href="#raphael-marker-block" transform="rotate(180 2.5 2.5) scale(1,1)" stroke-width="1.0000" fill="#000" stroke="none" style="-webkit-tap-highlight-color: rgba(0, 0, 0, 0);"></use></marker><marker id="raphael-marker-endblock55-objdb49k" markerHeight="5" markerWidth="5" orient="auto" refX="2.5" refY="2.5" style="-webkit-tap-highlight-color: rgba(0, 0, 0, 0);"><use xlink:href="#raphael-marker-block" transform="rotate(180 2.5 2.5) scale(1,1)" stroke-width="1.0000" fill="#000" stroke="none" style="-webkit-tap-highlight-color: rgba(0, 0, 0, 0);"></use></marker><marker id="raphael-marker-endblock55-objx1egt" markerHeight="5" markerWidth="5" orient="auto" refX="2.5" refY="2.5" style="-webkit-tap-highlight-color: rgba(0, 0, 0, 0);"><use xlink:href="#raphael-marker-block" transform="rotate(180 2.5 2.5) scale(1,1)" stroke-width="1.0000" fill="#000" stroke="none" style="-webkit-tap-highlight-color: rgba(0, 0, 0, 0);"></use></marker><marker id="raphael-marker-endblock55-objwfdom" markerHeight="5" markerWidth="5" orient="auto" refX="2.5" refY="2.5" style="-webkit-tap-highlight-color: rgba(0, 0, 0, 0);"><use xlink:href="#raphael-marker-block" transform="rotate(180 2.5 2.5) scale(1,1)" stroke-width="1.0000" fill="#000" stroke="none" style="-webkit-tap-highlight-color: rgba(0, 0, 0, 0);"></use></marker></defs><rect x="134.625" y="20" width="68" height="38" rx="0" ry="0" fill="#ffffff" stroke="#000000" stroke-width="2" style="-webkit-tap-highlight-color: rgba(0, 0, 0, 0);"></rect><rect x="144.609375" y="30" width="48" height="18" rx="0" ry="0" fill="#ffffff" stroke="none" style="-webkit-tap-highlight-color: rgba(0, 0, 0, 0);"></rect><text x="168.625" y="39" text-anchor="middle" font-family="Andale Mono, monospace" font-size="16px" stroke="none" fill="#000000" style="-webkit-tap-highlight-color: rgba(0, 0, 0, 0); text-anchor: middle; font-family: &quot;Andale Mono&quot;, monospace; font-size: 16px;"><tspan dy="6" style="-webkit-tap-highlight-color: rgba(0, 0, 0, 0);">Envoy</tspan></text><rect x="134.625" y="478" width="68" height="38" rx="0" ry="0" fill="#ffffff" stroke="#000000" stroke-width="2" style="-webkit-tap-highlight-color: rgba(0, 0, 0, 0);"></rect><rect x="144.609375" y="488" width="48" height="18" rx="0" ry="0" fill="#ffffff" stroke="none" style="-webkit-tap-highlight-color: rgba(0, 0, 0, 0);"></rect><text x="168.625" y="497" text-anchor="middle" font-family="Andale Mono, monospace" font-size="16px" stroke="none" fill="#000000" style="-webkit-tap-highlight-color: rgba(0, 0, 0, 0); text-anchor: middle; font-family: &quot;Andale Mono&quot;, monospace; font-size: 16px;"><tspan dy="6" style="-webkit-tap-highlight-color: rgba(0, 0, 0, 0);">Envoy</tspan></text><path fill="none" stroke="#000000" d="M168.625,58L168.625,478" stroke-width="2" style="-webkit-tap-highlight-color: rgba(0, 0, 0, 0);"></path><rect x="721.109375" y="20" width="183.21875" height="38" rx="0" ry="0" fill="#ffffff" stroke="#000000" stroke-width="2" style="-webkit-tap-highlight-color: rgba(0, 0, 0, 0);"></rect><rect x="731.09375" y="30" width="163.21875" height="18" rx="0" ry="0" fill="#ffffff" stroke="none" style="-webkit-tap-highlight-color: rgba(0, 0, 0, 0);"></rect><text x="812.71875" y="39" text-anchor="middle" font-family="Andale Mono, monospace" font-size="16px" stroke="none" fill="#000000" style="-webkit-tap-highlight-color: rgba(0, 0, 0, 0); text-anchor: middle; font-family: &quot;Andale Mono&quot;, monospace; font-size: 16px;"><tspan dy="6" style="-webkit-tap-highlight-color: rgba(0, 0, 0, 0);">Management Server</tspan></text><rect x="721.109375" y="478" width="183.21875" height="38" rx="0" ry="0" fill="#ffffff" stroke="#000000" stroke-width="2" style="-webkit-tap-highlight-color: rgba(0, 0, 0, 0);"></rect><rect x="731.09375" y="488" width="163.21875" height="18" rx="0" ry="0" fill="#ffffff" stroke="none" style="-webkit-tap-highlight-color: rgba(0, 0, 0, 0);"></rect><text x="812.71875" y="497" text-anchor="middle" font-family="Andale Mono, monospace" font-size="16px" stroke="none" fill="#000000" style="-webkit-tap-highlight-color: rgba(0, 0, 0, 0); text-anchor: middle; font-family: &quot;Andale Mono&quot;, monospace; font-size: 16px;"><tspan dy="6" style="-webkit-tap-highlight-color: rgba(0, 0, 0, 0);">Management Server</tspan></text><path fill="none" stroke="#000000" d="M812.71875,58L812.71875,478" stroke-width="2" style="-webkit-tap-highlight-color: rgba(0, 0, 0, 0);"></path><rect x="457.0625" y="74" width="67.203125" height="18" rx="0" ry="0" fill="none" stroke="none" style="-webkit-tap-highlight-color: rgba(0, 0, 0, 0);"></rect><text x="490.671875" y="83" text-anchor="middle" font-family="Andale Mono, monospace" font-size="16px" stroke="none" fill="#000000" style="-webkit-tap-highlight-color: rgba(0, 0, 0, 0); text-anchor: middle; font-family: &quot;Andale Mono&quot;, monospace; font-size: 16px;"><tspan dy="6" style="-webkit-tap-highlight-color: rgba(0, 0, 0, 0);">{T=CDS}</tspan></text><path fill="none" stroke="#000000" d="M168.625,96C168.625,96,747.7704270780087,96,807.7210279278806,96" stroke-width="2" marker-end="url(#raphael-marker-endblock55-obj5a8cp)" stroke-dasharray="none" style="-webkit-tap-highlight-color: rgba(0, 0, 0, 0);"></path><rect x="341.84375" y="112" width="297.640625" height="18" rx="0" ry="0" fill="none" stroke="none" style="-webkit-tap-highlight-color: rgba(0, 0, 0, 0);"></rect><text x="490.671875" y="121" text-anchor="middle" font-family="Andale Mono, monospace" font-size="16px" stroke="none" fill="#000000" style="-webkit-tap-highlight-color: rgba(0, 0, 0, 0); text-anchor: middle; font-family: &quot;Andale Mono&quot;, monospace; font-size: 16px;"><tspan dy="6" style="-webkit-tap-highlight-color: rgba(0, 0, 0, 0);">{R={(foo, v0)},nonce=n0, T=CDS}</tspan></text><path fill="none" stroke="#000000" d="M812.71875,134C812.71875,134,233.57332292199135,134,173.62272207211936,134" stroke-width="2" marker-end="url(#raphael-marker-endblock55-objv2ikk)" stroke-dasharray="none" style="-webkit-tap-highlight-color: rgba(0, 0, 0, 0);"></path><rect x="337.046875" y="150" width="307.25" height="18" rx="0" ry="0" fill="none" stroke="none" style="-webkit-tap-highlight-color: rgba(0, 0, 0, 0);"></rect><text x="490.671875" y="159" text-anchor="middle" font-family="Andale Mono, monospace" font-size="16px" stroke="none" fill="#000000" style="-webkit-tap-highlight-color: rgba(0, 0, 0, 0); text-anchor: middle; font-family: &quot;Andale Mono&quot;, monospace; font-size: 16px;"><tspan dy="6" style="-webkit-tap-highlight-color: rgba(0, 0, 0, 0);">{response_nonce=n0, T=CDS}  (ACK)</tspan></text><path fill="none" stroke="#000000" d="M168.625,172C168.625,172,747.7704270780087,172,807.7210279278806,172" stroke-width="2" marker-end="url(#raphael-marker-endblock55-objuc7hd)" stroke-dasharray="none" style="-webkit-tap-highlight-color: rgba(0, 0, 0, 0);"></path><rect x="673.296875" y="192" width="278.84375" height="28" rx="0" ry="0" fill="none" stroke="#000000" stroke-width="2" style="-webkit-tap-highlight-color: rgba(0, 0, 0, 0);"></rect><rect x="678.296875" y="197" width="268.84375" height="18" rx="0" ry="0" fill="none" stroke="none" style="-webkit-tap-highlight-color: rgba(0, 0, 0, 0);"></rect><text x="812.71875" y="206" text-anchor="middle" font-family="Andale Mono, monospace" font-size="16px" stroke="none" fill="#000000" style="-webkit-tap-highlight-color: rgba(0, 0, 0, 0); text-anchor: middle; font-family: &quot;Andale Mono&quot;, monospace; font-size: 16px;"><tspan dy="6" style="-webkit-tap-highlight-color: rgba(0, 0, 0, 0);">spontaneous update of server</tspan></text><rect x="341.84375" y="236" width="297.640625" height="18" rx="0" ry="0" fill="none" stroke="none" style="-webkit-tap-highlight-color: rgba(0, 0, 0, 0);"></rect><text x="490.671875" y="245" text-anchor="middle" font-family="Andale Mono, monospace" font-size="16px" stroke="none" fill="#000000" style="-webkit-tap-highlight-color: rgba(0, 0, 0, 0); text-anchor: middle; font-family: &quot;Andale Mono&quot;, monospace; font-size: 16px;"><tspan dy="6" style="-webkit-tap-highlight-color: rgba(0, 0, 0, 0);">{R={(bar, v0)},nonce=n1, T=CDS}</tspan></text><path fill="none" stroke="#000000" d="M812.71875,258C812.71875,258,233.57332292199135,258,173.62272207211936,258" stroke-width="2" marker-end="url(#raphael-marker-endblock55-objcpypu)" stroke-dasharray="none" style="-webkit-tap-highlight-color: rgba(0, 0, 0, 0);"></path><rect x="178.609375" y="274" width="624.09375" height="18" rx="0" ry="0" fill="none" stroke="none" style="-webkit-tap-highlight-color: rgba(0, 0, 0, 0);"></rect><text x="490.671875" y="283" text-anchor="middle" font-family="Andale Mono, monospace" font-size="16px" stroke="none" fill="#000000" style="-webkit-tap-highlight-color: rgba(0, 0, 0, 0); text-anchor: middle; font-family: &quot;Andale Mono&quot;, monospace; font-size: 16px;"><tspan dy="6" style="-webkit-tap-highlight-color: rgba(0, 0, 0, 0);">{response_nonce=n1, error_detail="could not apply", T=CDS}  (NACK)</tspan></text><path fill="none" stroke="#000000" d="M168.625,296C168.625,296,747.7704270780087,296,807.7210279278806,296" stroke-width="2" marker-end="url(#raphael-marker-endblock55-objayc22)" stroke-dasharray="none" style="-webkit-tap-highlight-color: rgba(0, 0, 0, 0);"></path><rect x="10" y="316" width="317.25" height="28" rx="0" ry="0" fill="none" stroke="#000000" stroke-width="2" style="-webkit-tap-highlight-color: rgba(0, 0, 0, 0);"></rect><rect x="15" y="321" width="307.25" height="18" rx="0" ry="0" fill="none" stroke="none" style="-webkit-tap-highlight-color: rgba(0, 0, 0, 0);"></rect><text x="168.625" y="330" text-anchor="middle" font-family="Andale Mono, monospace" font-size="16px" stroke="none" fill="#000000" style="-webkit-tap-highlight-color: rgba(0, 0, 0, 0); text-anchor: middle; font-family: &quot;Andale Mono&quot;, monospace; font-size: 16px;"><tspan dy="6" style="-webkit-tap-highlight-color: rgba(0, 0, 0, 0);">spontaneous resource list update</tspan></text><rect x="322.640625" y="360" width="336.046875" height="18" rx="0" ry="0" fill="none" stroke="none" style="-webkit-tap-highlight-color: rgba(0, 0, 0, 0);"></rect><text x="490.671875" y="369" text-anchor="middle" font-family="Andale Mono, monospace" font-size="16px" stroke="none" fill="#000000" style="-webkit-tap-highlight-color: rgba(0, 0, 0, 0); text-anchor: middle; font-family: &quot;Andale Mono&quot;, monospace; font-size: 16px;"><tspan dy="6" style="-webkit-tap-highlight-color: rgba(0, 0, 0, 0);">{resource_list_subscribe=wc, T=CDS}</tspan></text><path fill="none" stroke="#000000" d="M168.625,382C168.625,382,747.7704270780087,382,807.7210279278806,382" stroke-width="2" marker-end="url(#raphael-marker-endblock55-objdb49k)" stroke-dasharray="none" style="-webkit-tap-highlight-color: rgba(0, 0, 0, 0);"></path><rect x="346.640625" y="398" width="288.046875" height="18" rx="0" ry="0" fill="none" stroke="none" style="-webkit-tap-highlight-color: rgba(0, 0, 0, 0);"></rect><text x="490.671875" y="407" text-anchor="middle" font-family="Andale Mono, monospace" font-size="16px" stroke="none" fill="#000000" style="-webkit-tap-highlight-color: rgba(0, 0, 0, 0); text-anchor: middle; font-family: &quot;Andale Mono&quot;, monospace; font-size: 16px;"><tspan dy="6" style="-webkit-tap-highlight-color: rgba(0, 0, 0, 0);">{R={(wc, v0)},nonce=n2, T=CDS}</tspan></text><path fill="none" stroke="#000000" d="M812.71875,420C812.71875,420,233.57332292199135,420,173.62272207211936,420" stroke-width="2" marker-end="url(#raphael-marker-endblock55-objx1egt)" stroke-dasharray="none" style="-webkit-tap-highlight-color: rgba(0, 0, 0, 0);"></path><rect x="337.046875" y="436" width="307.25" height="18" rx="0" ry="0" fill="none" stroke="none" style="-webkit-tap-highlight-color: rgba(0, 0, 0, 0);"></rect><text x="490.671875" y="445" text-anchor="middle" font-family="Andale Mono, monospace" font-size="16px" stroke="none" fill="#000000" style="-webkit-tap-highlight-color: rgba(0, 0, 0, 0); text-anchor: middle; font-family: &quot;Andale Mono&quot;, monospace; font-size: 16px;"><tspan dy="6" style="-webkit-tap-highlight-color: rgba(0, 0, 0, 0);">{response_nonce=n2, T=CDS}  (ACK)</tspan></text><path fill="none" stroke="#000000" d="M168.625,458C168.625,458,747.7704270780087,458,807.7210279278806,458" stroke-width="2" marker-end="url(#raphael-marker-endblock55-objwfdom)" stroke-dasharray="none" style="-webkit-tap-highlight-color: rgba(0, 0, 0, 0);"></path></svg>

<svg width="1083" height="536" xmlns="http://www.w3.org/2000/svg" xmlns:xlink="http://www.w3.org/1999/xlink"><defs style="-webkit-tap-highlight-color:transparent"><marker id="b" style="-webkit-tap-highlight-color:transparent" markerHeight="5" markerWidth="5" orient="auto" refX="2.5" refY="2.5"><use transform="rotate(180 2.5 2.5)" style="-webkit-tap-highlight-color:transparent" xlink:href="#a"/></marker><marker id="c" style="-webkit-tap-highlight-color:transparent" markerHeight="5" markerWidth="5" orient="auto" refX="2.5" refY="2.5"><use transform="rotate(180 2.5 2.5)" style="-webkit-tap-highlight-color:transparent" xlink:href="#a"/></marker><marker id="d" style="-webkit-tap-highlight-color:transparent" markerHeight="5" markerWidth="5" orient="auto" refX="2.5" refY="2.5"><use transform="rotate(180 2.5 2.5)" style="-webkit-tap-highlight-color:transparent" xlink:href="#a"/></marker><marker id="e" style="-webkit-tap-highlight-color:transparent" markerHeight="5" markerWidth="5" orient="auto" refX="2.5" refY="2.5"><use transform="rotate(180 2.5 2.5)" style="-webkit-tap-highlight-color:transparent" xlink:href="#a"/></marker><marker id="f" style="-webkit-tap-highlight-color:transparent" markerHeight="5" markerWidth="5" orient="auto" refX="2.5" refY="2.5"><use transform="rotate(180 2.5 2.5)" style="-webkit-tap-highlight-color:transparent" xlink:href="#a"/></marker><marker id="g" style="-webkit-tap-highlight-color:transparent" markerHeight="5" markerWidth="5" orient="auto" refX="2.5" refY="2.5"><use transform="rotate(180 2.5 2.5)" style="-webkit-tap-highlight-color:transparent" xlink:href="#a"/></marker><marker id="h" style="-webkit-tap-highlight-color:transparent" markerHeight="5" markerWidth="5" orient="auto" refX="2.5" refY="2.5"><use transform="rotate(180 2.5 2.5)" style="-webkit-tap-highlight-color:transparent" xlink:href="#a"/></marker><marker id="i" style="-webkit-tap-highlight-color:transparent" markerHeight="5" markerWidth="5" orient="auto" refX="2.5" refY="2.5"><use transform="rotate(180 2.5 2.5)" style="-webkit-tap-highlight-color:transparent" xlink:href="#a"/></marker><path id="a" d="M5 0 0 2.5 5 5z" stroke-linecap="round" style="-webkit-tap-highlight-color:transparent"/></defs><rect x="134.62" y="20" width="68" height="38" rx="0" ry="0" fill="#fff" stroke="#000" stroke-width="2" style="-webkit-tap-highlight-color:transparent"/><rect x="144.61" y="30" width="48" height="18" rx="0" ry="0" fill="#fff" style="-webkit-tap-highlight-color:transparent"/><text x="168.625" y="39" font-family="&quot;Andale Mono&quot;, monospace" font-size="16" text-anchor="middle" style="-webkit-tap-highlight-color:transparent"><tspan dy="6" style="-webkit-tap-highlight-color:transparent">Envoy</tspan></text><rect x="134.62" y="478" width="68" height="38" rx="0" ry="0" fill="#fff" stroke="#000" stroke-width="2" style="-webkit-tap-highlight-color:transparent"/><rect x="144.61" y="488" width="48" height="18" rx="0" ry="0" fill="#fff" style="-webkit-tap-highlight-color:transparent"/><text x="168.625" y="497" font-family="&quot;Andale Mono&quot;, monospace" font-size="16" text-anchor="middle" style="-webkit-tap-highlight-color:transparent"><tspan dy="6" style="-webkit-tap-highlight-color:transparent">Envoy</tspan></text><path d="M168.62 58v420" fill="none" stroke="#000" stroke-width="2" style="-webkit-tap-highlight-color:transparent"/><rect x="721.11" y="20" width="183.22" height="38" rx="0" ry="0" fill="#fff" stroke="#000" stroke-width="2" style="-webkit-tap-highlight-color:transparent"/><rect x="731.09" y="30" width="163.22" height="18" rx="0" ry="0" fill="#fff" style="-webkit-tap-highlight-color:transparent"/><text x="812.719" y="39" font-family="&quot;Andale Mono&quot;, monospace" font-size="16" text-anchor="middle" style="-webkit-tap-highlight-color:transparent"><tspan dy="6" style="-webkit-tap-highlight-color:transparent">Management Server</tspan></text><rect x="721.11" y="478" width="183.22" height="38" rx="0" ry="0" fill="#fff" stroke="#000" stroke-width="2" style="-webkit-tap-highlight-color:transparent"/><rect x="731.09" y="488" width="163.22" height="18" rx="0" ry="0" fill="#fff" style="-webkit-tap-highlight-color:transparent"/><text x="812.719" y="497" font-family="&quot;Andale Mono&quot;, monospace" font-size="16" text-anchor="middle" style="-webkit-tap-highlight-color:transparent"><tspan dy="6" style="-webkit-tap-highlight-color:transparent">Management Server</tspan></text><path d="M812.72 58v420" fill="none" stroke="#000" stroke-width="2" style="-webkit-tap-highlight-color:transparent"/><rect x="457.06" y="74" width="67.203" height="18" rx="0" ry="0" fill="none" style="-webkit-tap-highlight-color:transparent"/><text x="490.672" y="83" font-family="&quot;Andale Mono&quot;, monospace" font-size="16" text-anchor="middle" style="-webkit-tap-highlight-color:transparent"><tspan dy="6" style="-webkit-tap-highlight-color:transparent">{T=CDS}</tspan></text><path d="M168.62 96h639.1" fill="none" marker-end="url(#b)" stroke="#000" stroke-width="2" style="-webkit-tap-highlight-color:transparent"/><rect x="341.84" y="112" width="297.64" height="18" rx="0" ry="0" fill="none" style="-webkit-tap-highlight-color:transparent"/><text x="490.672" y="121" font-family="&quot;Andale Mono&quot;, monospace" font-size="16" text-anchor="middle" style="-webkit-tap-highlight-color:transparent"><tspan dy="6" style="-webkit-tap-highlight-color:transparent">{R={(foo, v0)},nonce=n0, T=CDS}</tspan></text><path d="M812.72 134h-639.1" fill="none" marker-end="url(#c)" stroke="#000" stroke-width="2" style="-webkit-tap-highlight-color:transparent"/><rect x="337.05" y="150" width="307.25" height="18" rx="0" ry="0" fill="none" style="-webkit-tap-highlight-color:transparent"/><text x="490.672" y="159" font-family="&quot;Andale Mono&quot;, monospace" font-size="16" text-anchor="middle" style="-webkit-tap-highlight-color:transparent"><tspan dy="6" style="-webkit-tap-highlight-color:transparent">{response_nonce=n0, T=CDS} (ACK)</tspan></text><path d="M168.62 172h639.1" fill="none" marker-end="url(#d)" stroke="#000" stroke-width="2" style="-webkit-tap-highlight-color:transparent"/><rect x="673.3" y="192" width="278.84" height="28" rx="0" ry="0" fill="none" stroke="#000" stroke-width="2" style="-webkit-tap-highlight-color:transparent"/><rect x="678.3" y="197" width="268.84" height="18" rx="0" ry="0" fill="none" style="-webkit-tap-highlight-color:transparent"/><text x="812.719" y="206" font-family="&quot;Andale Mono&quot;, monospace" font-size="16" text-anchor="middle" style="-webkit-tap-highlight-color:transparent"><tspan dy="6" style="-webkit-tap-highlight-color:transparent">spontaneous update of server</tspan></text><rect x="341.84" y="236" width="297.64" height="18" rx="0" ry="0" fill="none" style="-webkit-tap-highlight-color:transparent"/><text x="490.672" y="245" font-family="&quot;Andale Mono&quot;, monospace" font-size="16" text-anchor="middle" style="-webkit-tap-highlight-color:transparent"><tspan dy="6" style="-webkit-tap-highlight-color:transparent">{R={(bar, v0)},nonce=n1, T=CDS}</tspan></text><path d="M812.72 258h-639.1" fill="none" marker-end="url(#e)" stroke="#000" stroke-width="2" style="-webkit-tap-highlight-color:transparent"/><rect x="178.61" y="274" width="624.09" height="18" rx="0" ry="0" fill="none" style="-webkit-tap-highlight-color:transparent"/><text x="490.672" y="283" font-family="&quot;Andale Mono&quot;, monospace" font-size="16" text-anchor="middle" style="-webkit-tap-highlight-color:transparent"><tspan dy="6" style="-webkit-tap-highlight-color:transparent">{response_nonce=n1, error_detail=&quot;could not apply&quot;, T=CDS} (NACK)</tspan></text><path d="M168.62 296h639.1" fill="none" marker-end="url(#f)" stroke="#000" stroke-width="2" style="-webkit-tap-highlight-color:transparent"/><rect x="10" y="316" width="317.25" height="28" rx="0" ry="0" fill="none" stroke="#000" stroke-width="2" style="-webkit-tap-highlight-color:transparent"/><rect x="15" y="321" width="307.25" height="18" rx="0" ry="0" fill="none" style="-webkit-tap-highlight-color:transparent"/><text x="168.625" y="330" font-family="&quot;Andale Mono&quot;, monospace" font-size="16" text-anchor="middle" style="-webkit-tap-highlight-color:transparent"><tspan dy="6" style="-webkit-tap-highlight-color:transparent">spontaneous resource list update</tspan></text><rect x="322.64" y="360" width="336.05" height="18" rx="0" ry="0" fill="none" style="-webkit-tap-highlight-color:transparent"/><text x="490.672" y="369" font-family="&quot;Andale Mono&quot;, monospace" font-size="16" text-anchor="middle" style="-webkit-tap-highlight-color:transparent"><tspan dy="6" style="-webkit-tap-highlight-color:transparent">{resource_list_subscribe=wc, T=CDS}</tspan></text><path d="M168.62 382h639.1" fill="none" marker-end="url(#g)" stroke="#000" stroke-width="2" style="-webkit-tap-highlight-color:transparent"/><rect x="346.64" y="398" width="288.05" height="18" rx="0" ry="0" fill="none" style="-webkit-tap-highlight-color:transparent"/><text x="490.672" y="407" font-family="&quot;Andale Mono&quot;, monospace" font-size="16" text-anchor="middle" style="-webkit-tap-highlight-color:transparent"><tspan dy="6" style="-webkit-tap-highlight-color:transparent">{R={(wc, v0)},nonce=n2, T=CDS}</tspan></text><path d="M812.72 420h-639.1" fill="none" marker-end="url(#h)" stroke="#000" stroke-width="2" style="-webkit-tap-highlight-color:transparent"/><rect x="337.05" y="436" width="307.25" height="18" rx="0" ry="0" fill="none" style="-webkit-tap-highlight-color:transparent"/><text x="490.672" y="445" font-family="&quot;Andale Mono&quot;, monospace" font-size="16" text-anchor="middle" style="-webkit-tap-highlight-color:transparent"><tspan dy="6" style="-webkit-tap-highlight-color:transparent">{response_nonce=n2, T=CDS} (ACK)</tspan></text><path d="M168.62 458h639.1" fill="none" marker-end="url(#i)" stroke="#000" stroke-width="2" style="-webkit-tap-highlight-color:transparent"/></svg>
